azure-patterns/svg-globe-check.svg

<svg xmlns="http://www.w3.org/2000/svg" viewBox="0 0 97 97">
                                
                            
    <path d="M44.0287 75.6213C62.0287 75.6213 76.6287 61.0213 76.6287 43.0213C76.6287 25.0213 62.0287 10.4213 44.0287 10.4213C26.0287 10.4213 11.4287 25.0213 11.4287 43.0213C11.4287 61.0213 26.0287 75.6213 44.0287 75.6213Z" fill="#0078D4"></path>
    <path d="M76.7287 7.62128L69.5287 14.8213L69.4287 14.9213C69.9287 15.3213 70.3287 15.7213 70.7287 16.2213C74.2287 19.7213 76.9287 23.7213 78.8287 28.2213C80.8287 32.9213 81.8287 37.8213 81.8287 42.9213C81.8287 48.0213 80.8287 53.0213 78.8287 57.6213C76.9287 62.1213 74.2287 66.2213 70.7287 69.6213C67.2287 73.1213 63.2287 75.8213 58.7287 77.7213C54.0287 79.7213 49.1287 80.7213 43.9287 80.7213C38.7287 80.7213 33.8287 79.7213 29.2287 77.7213C24.7287 75.8213 20.6287 73.1213 17.2287 69.6213C16.8287 69.2213 16.3287 68.7213 15.9287 68.3213L12.4287 72.0213C19.6287 79.9213 29.8287 85.1213 41.2287 85.8213V91.0213H20.9287V96.0213H66.3287V91.0213H46.2287V85.9213C68.9287 84.8213 87.0287 66.0213 87.0287 43.0213C87.0287 32.3213 83.1287 22.5213 76.6287 15.0213L80.4287 11.2213L76.7287 7.62128Z" fill="#50E6FF"></path>
    <path d="M59.3287 27.5213L35.4287 51.4213L28.2287 44.2213L23.4287 49.0213L35.4287 61.0213L64.1287 32.3213L59.3287 27.5213Z" fill="#50E6FF"></path>
</svg>

<svg xmlns="http://www.w3.org/2000/svg" viewBox="0 0 97 97"><path d="M44.029 75.621c18 0 32.6-14.6 32.6-32.6s-14.6-32.6-32.6-32.6-32.6 14.6-32.6 32.6 14.6 32.6 32.6 32.6z" fill="#0078D4"/><path d="M76.729 7.621l-7.2 7.2-.1.1c.5.4.9.8 1.3 1.3 3.5 3.5 6.2 7.5 8.1 12 2 4.7 3 9.6 3 14.7s-1 10.1-3 14.7c-1.9 4.5-4.6 8.6-8.1 12-3.5 3.5-7.5 6.2-12 8.1-4.7 2-9.6 3-14.8 3-5.2 0-10.1-1-14.7-3-4.5-1.9-8.6-4.6-12-8.1l-1.3-1.3-3.5 3.7c7.2 7.9 17.4 13.1 28.8 13.8v5.2h-20.3v5h45.4v-5h-20.1v-5.1c22.7-1.1 40.8-19.9 40.8-42.9 0-10.7-3.9-20.5-10.4-28l3.8-3.8-3.7-3.6z" fill="#50E6FF"/><path d="M59.329 27.521l-23.9 23.9-7.2-7.2-4.8 4.8 12 12 28.7-28.7-4.8-4.8z" fill="#50E6FF"/></svg>
